X:662
T:Fairy Dance 
C:Joe Buchanan's Scottish Tome - Page 203.3
I:203 3
R:Reel
Z:Carl Allison
L:1/8
M:4/4
K:Dmaj
de | "D"f2fd f2fd | "D"f2fd "A7"cdeg | "D"f2fd "G"gfed | "A7"cABc defe |
"D"f2fd f2fd | "D"f2fd "A7"cdeg | "D"f2fd "G"gfed | "A7"cABc defg |
"D"a2af "B7"b2bf | "Em"g2ge "A7"a2ag | "D"f2fd "G"gfed | "A7"cABc defg |
"D"a2af "B7"b2bf | "Em"gfge "A7"a2ag | "D"f2fa "G"gfed | "A7"cABc d2 :|

